public/assests/icons/social-inst.svg

<svg width="15" height="15" viewBox="0 0 15 15" fill="none" xmlns="http://www.w3.org/2000/svg">
<path d="M7.25933 1.7991C9.18902 1.7991 9.41754 1.80756 10.1764 1.84142C10.8817 1.87245 11.2626 1.99094 11.5165 2.08968C11.8522 2.21946 12.0948 2.37744 12.3459 2.62853C12.5998 2.88243 12.755 3.12223 12.8848 3.45795C12.9835 3.71186 13.102 4.09554 13.133 4.79801C13.1669 5.55973 13.1753 5.78825 13.1753 7.71512C13.1753 9.6448 13.1669 9.87332 13.133 10.6322C13.102 11.3375 12.9835 11.7184 12.8848 11.9723C12.755 12.308 12.597 12.5506 12.3459 12.8017C12.092 13.0556 11.8522 13.2108 11.5165 13.3406C11.2626 13.4393 10.8789 13.5578 10.1764 13.5888C9.41471 13.6227 9.1862 13.6311 7.25933 13.6311C5.32964 13.6311 5.10113 13.6227 4.34223 13.5888C3.63694 13.5578 3.25608 13.4393 3.00217 13.3406C2.66645 13.2108 2.42383 13.0528 2.17274 12.8017C1.91884 12.5478 1.76367 12.308 1.6339 11.9723C1.53516 11.7184 1.41667 11.3347 1.38563 10.6322C1.35178 9.8705 1.34332 9.64198 1.34332 7.71512C1.34332 5.78543 1.35178 5.55691 1.38563 4.79801C1.41667 4.09272 1.53516 3.71186 1.6339 3.45795C1.76367 3.12223 1.92166 2.87961 2.17274 2.62853C2.42665 2.37462 2.66645 2.21946 3.00217 2.08968C3.25608 1.99094 3.63976 1.87245 4.34223 1.84142C5.10113 1.80756 5.32964 1.7991 7.25933 1.7991ZM7.25933 0.498535C5.29861 0.498535 5.05317 0.506999 4.28299 0.540853C3.51563 0.574707 2.98806 0.698839 2.53103 0.876573C2.05425 1.06277 1.65082 1.30821 1.25022 1.71164C0.846788 2.11225 0.601346 2.51568 0.415148 2.98964C0.237413 3.44949 0.113281 3.97423 0.0794271 4.74159C0.0455729 5.51459 0.0371094 5.76004 0.0371094 7.72076C0.0371094 9.68148 0.0455729 9.92692 0.0794271 10.6971C0.113281 11.4645 0.237413 11.992 0.415148 12.4491C0.601346 12.9258 0.846788 13.3293 1.25022 13.7299C1.65082 14.1305 2.05425 14.3787 2.52821 14.5621C2.98806 14.7399 3.5128 14.864 4.28017 14.8978C5.05035 14.9317 5.29579 14.9402 7.25651 14.9402C9.21723 14.9402 9.46268 14.9317 10.2329 14.8978C11.0002 14.864 11.5278 14.7399 11.9848 14.5621C12.4588 14.3787 12.8622 14.1305 13.2628 13.7299C13.6634 13.3293 13.9117 12.9258 14.0951 12.4519C14.2728 11.992 14.3969 11.4673 14.4308 10.6999C14.4646 9.92974 14.4731 9.6843 14.4731 7.72358C14.4731 5.76286 14.4646 5.51742 14.4308 4.74723C14.3969 3.97987 14.2728 3.45231 14.0951 2.99528C13.9173 2.51568 13.6719 2.11225 13.2684 1.71164C12.8678 1.31104 12.4644 1.06277 11.9905 0.879395C11.5306 0.70166 11.0059 0.577528 10.2385 0.543674C9.4655 0.506999 9.22005 0.498535 7.25933 0.498535Z" fill="white"/>
<path d="M7.25917 4.01099C5.21099 4.01099 3.54932 5.67266 3.54932 7.72084C3.54932 9.76902 5.21099 11.4307 7.25917 11.4307C9.30734 11.4307 10.969 9.76902 10.969 7.72084C10.969 5.67266 9.30734 4.01099 7.25917 4.01099ZM7.25917 10.1273C5.93039 10.1273 4.8527 9.04961 4.8527 7.72084C4.8527 6.39206 5.93039 5.31437 7.25917 5.31437C8.58794 5.31437 9.66563 6.39206 9.66563 7.72084C9.66563 9.04961 8.58794 10.1273 7.25917 10.1273Z" fill="white"/>
<path d="M11.9822 3.86415C11.9822 4.34375 11.5929 4.73025 11.1161 4.73025C10.6365 4.73025 10.25 4.34093 10.25 3.86415C10.25 3.38455 10.6393 2.99805 11.1161 2.99805C11.5929 2.99805 11.9822 3.38737 11.9822 3.86415Z" fill="white"/>
</svg>

<svg width="15" height="15" fill="none" xmlns="http://www.w3.org/2000/svg"><path d="M7.2593 1.7991c1.9297 0 2.1582.0085 2.9171.0423.7053.031 1.0862.1495 1.3401.2483.3357.1298.5783.2877.8294.5388.2539.254.4091.4937.5389.8295.0987.2539.2172.6375.2482 1.34.0339.7617.0423.9902.0423 2.9171 0 1.9297-.0084 2.1582-.0423 2.9171-.031.7053-.1495 1.0862-.2482 1.3401-.1298.3357-.2878.5783-.5389.8294-.2539.2539-.4937.4091-.8294.5389-.2539.0987-.6376.2172-1.3401.2482-.7617.0339-.9902.0423-2.917.0423-1.9298 0-2.1583-.0084-2.9172-.0423-.7053-.031-1.0861-.1495-1.34-.2482-.3357-.1298-.5784-.2878-.8295-.5389-.2539-.2539-.409-.4937-.5388-.8294-.0987-.2539-.2172-.6376-.2483-1.3401-.0338-.7617-.0423-.9902-.0423-2.917 0-1.9298.0085-2.1583.0423-2.9172.031-.7053.1496-1.0861.2483-1.34.1298-.3358.2878-.5784.5388-.8295.254-.2539.4938-.409.8295-.5388.2539-.0988.6376-.2173 1.34-.2483.759-.0338.9874-.0423 2.9171-.0423Zm0-1.3006C5.2986.4985 5.0532.507 4.283.541c-.7674.0338-1.295.158-1.752.3357-.4768.1862-.8802.4316-1.2808.835-.4034.4006-.6489.804-.835 1.278-.1778.4599-.302.9846-.3358 1.752C.0456 5.5146.0371 5.76.0371 7.7208c0 1.9607.0085 2.2061.0423 2.9763.0339.7674.158 1.2949.3357 1.752.1862.4767.4317.8802.8351 1.2808.4006.4006.804.6488 1.278.8322.4599.1778.9846.3019 1.752.3357.7702.0339 1.0156.0424 2.9763.0424s2.2062-.0085 2.9764-.0424c.7673-.0338 1.2949-.1579 1.7519-.3357.474-.1834.8774-.4316 1.278-.8322.4006-.4006.6489-.8041.8323-1.278.1777-.4599.3018-.9846.3357-1.752.0338-.7702.0423-1.0156.0423-2.9763s-.0085-2.2062-.0423-2.9764c-.0339-.7673-.158-1.2949-.3357-1.752-.1778-.4795-.4232-.883-.8267-1.2836-.4006-.4006-.804-.6488-1.2779-.8322-.4599-.1777-.9846-.3019-1.752-.3357C9.4655.507 9.2201.4985 7.2593.4985Z" fill="#fff"/><path d="M7.2592 4.011c-2.0482 0-3.7099 1.6617-3.7099 3.7098 0 2.0482 1.6617 3.7099 3.7099 3.7099 2.0481 0 3.7098-1.6617 3.7098-3.7099 0-2.0481-1.6617-3.7098-3.7098-3.7098Zm0 6.1163c-1.3288 0-2.4065-1.0777-2.4065-2.4065 0-1.3287 1.0777-2.4064 2.4065-2.4064 1.3287 0 2.4064 1.0777 2.4064 2.4064 0 1.3288-1.0777 2.4065-2.4064 2.4065ZM11.9822 3.8641c0 .4796-.3893.8661-.8661.8661-.4796 0-.8661-.3893-.8661-.866 0-.4796.3893-.8661.8661-.8661s.8661.3893.8661.866Z" fill="#fff"/></svg>
